!! 00026] TT[TB
!! Eigene Aufnahme, Guangzhou, 5.5.87
!!!OTL: Yu bu sa hua hua bu hong
!!!ARE: Asia, China,ÿYunnan
!! Ethnic Group: Han
!! MM, S. 10 , Quelle S. Bandprotokoll)
!!!SCT: C0947
!!!YEM: Copyright 1995, estate of Helmut Schaffrath.
**kern
*ICvox
*Ivox
*M2/4
*k[]
*C:
{8.a
16cc
8a
16a
16cc
=1
8.dd
16cc
[4dd
=2
4.dd]
8r}
=3
{8.gg
16ee
8dd
16cc
16a
=4
16g
16a
16f#
16g
[4a
=5
4.a]
8r}
=6
{8.a
16cc
8dd
16ee
16dd
=7
16dd
16cc
8a
16g
16e
8d
=8
8.g
16cc
8a
16g
16a
=9
8.g
16f
[4d
=10
4.d]
8r}
=11
{8dd
8dd
8dd
8g
=12
16cc
16dd
16a
16cc
8.g
16f
=13
8.g
16cc
8a
16g
16a
=14
8.g
16f
[4d
=15
4d]
4r}
==
!!!AGN: Xiaodiao. Biaoda aiqing
!! kleinere Alternativen in der Notation angegeben; Verzierung
!!    Die Saengerin Lei Huilan ist Angehoerige der Zhuang Minderheit und
!!    studiert an der Guangzhouer Musikhochschule.
!!    Aufgenommen am 5.5.87    cf. Nr. 20
!!    +++ Grundtonwechsel von C nach F!! +++
!!!ONB: ESAC (Essen Associative Code) Database: CHINA
!!!AMT: simple duple
!!!AIN: vox
!!!EED: Helmut Schaffrath
!!!EEV: 1.0
*-
!!!ONB: Tied note syntax fixed by Craig Sapp, 2004/05/03/
